images/beard.svg

<svg width="115" height="30" viewBox="0 0 115 30" fill="none" xmlns="http://www.w3.org/2000/svg">
<path d="M43.609 0.468994H45.025C50.4779 0.752654 54.7559 2.22162 57.4673 5.2507C60.2189 2.21149 64.4969 0.732393 69.9799 0.468994H71.3356C83.4968 1.29971 89.0401 10.0932 98.7509 13.8314C100.26 14.5236 101.903 14.8696 103.561 14.8445C106.052 14.5709 107.638 12.0282 107.317 9.19155C106.975 6.15234 104.023 3.5082 100.729 4.96703C100.297 5.17166 99.9002 5.44533 99.5543 5.77749C99.3032 6.0105 99.0221 6.61834 98.3794 6.39546C97.7768 5.88893 98.3793 5.14939 98.6907 4.7239C99.2853 3.65712 100.185 2.79627 101.273 2.254C102.361 1.71174 103.585 1.51331 104.786 1.68469C110.44 2.08991 115.501 7.09448 114.638 14.6723C112.71 25.9477 102.487 28.987 90.3657 30H86.4191C75.8414 29.5643 65.6952 25.6508 57.5276 18.8563C49.2995 25.6336 39.1183 29.5429 28.5055 30H24.6292C12.4179 28.9161 2.09448 25.9477 0.296925 14.3379C-0.385947 6.07128 4.49458 2.00886 10.1584 1.5935C11.3696 1.41985 12.6046 1.61663 13.7037 2.15842C14.8029 2.70021 15.7158 3.5621 16.3243 4.63272C16.6055 5.09873 17.1277 5.81801 16.6356 6.3752C16.023 6.48664 15.7218 6.00038 15.4607 5.75724C15.0935 5.37125 14.6543 5.06241 14.1682 4.84854C13.6822 4.63467 13.159 4.52 12.6288 4.51115C8.75249 4.36932 6.5231 8.7154 8.06961 12.2206C8.37279 12.9008 8.84248 13.4919 9.43451 13.9385C10.0265 14.3851 10.7214 14.6725 11.4538 14.7736C13.1105 14.7851 14.7504 14.4397 16.2641 13.7605C17.6143 13.2381 18.915 12.5939 20.1504 11.8357C27.5314 7.51998 33.3057 1.39089 43.609 0.468994Z" fill="white"/>
</svg>

<svg width="115" height="30" fill="none" xmlns="http://www.w3.org/2000/svg"><path d="M43.609.469h1.416c5.453.284 9.73 1.753 12.442 4.782C60.22 2.21 64.497.732 69.98.469h1.356c12.16.83 17.704 9.624 27.415 13.362a11.132 11.132 0 004.81 1.014c2.491-.274 4.077-2.817 3.756-5.653-.342-3.04-3.294-5.684-6.588-4.225a4.441 4.441 0 00-1.175.81c-.25.234-.532.841-1.175.618-.602-.506 0-1.246.312-1.671a6.046 6.046 0 012.582-2.47 5.979 5.979 0 013.513-.57c5.654.406 10.715 5.41 9.852 12.988C112.71 25.948 102.487 28.987 90.366 30h-3.947a48.28 48.28 0 01-28.891-11.144A48.958 48.958 0 0128.506 30h-3.877C12.418 28.916 2.094 25.948.297 14.338-.386 6.07 4.495 2.008 10.158 1.594a6.068 6.068 0 013.546.564 6.137 6.137 0 012.62 2.475c.281.466.804 1.185.312 1.742-.613.112-.914-.375-1.175-.618a3.987 3.987 0 00-2.832-1.246c-3.877-.142-6.106 4.204-4.56 7.71a4.39 4.39 0 001.366 1.717 4.338 4.338 0 002.019.836 11.552 11.552 0 004.81-1.013 23.955 23.955 0 003.886-1.925C27.531 7.52 33.306 1.39 43.61.469z" fill="#fff"/></svg>
